X:1
T:Ancyra, CMD
T:Benjamin Carl Unseld, 1901
T:Ancyra, CMD
T:Public Domain
C:Benjamin Carl Unseld, 1901
Z:Public Domain
%%score ( 1 2 ) ( 3 4 )
L:1/8
M:4/4
K:F
V:1 treble 
V:2 treble 
V:3 bass 
V:4 bass 
V:1
 [FA]2 | [FA]3 [CF] [CF]2 [CF]2 | [B,F]3 [B,E] [B,E]2 [DB]2 | [EB]2 [B,D]2 [B,E]3 [B,D] | %4
 [B,D]4 [A,C]2 [FA]2 | [FA]3 [CF] [CF]2 [CF]2 | [B,F]3 [B,E] [B,E]2 [DB]2 | %7
 [EB]2 D2 [B,E]2 [B,G]2 | [A,F]6 [Fc]2 | [Ec]3 [EG] [EG]2 [GB]2 | [GB]3 [FA] [FA]2 [Fc]2 | %11
 [Ec]2 [EG]2 [Fd]2 [FG]2 | (E2 F2 G2) [GB]2 | [FA]3 [CF] [CF]2 [CF]2 | [B,F]3 [B,E] [B,E]2 [DB]2 | %15
 [EB]2 D2 [B,E]2 [B,G]2 | [A,F]6 |] %17
V:2
 x2 | x8 | x8 | x8 | x8 | x8 | x8 | x2 D2 x4 | x8 | x8 | x8 | x8 | c6 x2 | x8 | x8 | x2 D2 x4 | %16
 x6 |] %17
V:3
 [F,C]2 | [F,C]3 [F,A,] [F,A,]2 [F,A,]2 | [C,G,]3 [C,G,] [C,G,]2 [C,G,]2 | %3
 [C,G,]2 [C,G,]2 [C,G,]3 [C,E,] | [F,,F,]6 [F,C]2 | [F,C]3 [F,A,] [F,A,]2 [F,A,]2 | %6
 [C,G,]3 [C,G,] [C,G,]2 [C,G,]2 | [C,G,]2 [C,B,]2 [C,G,]2 [C,E,]2 | [F,,F,]6 [F,A,]2 | %9
 [C,G,]3 [C,C] [C,C]2 [E,C]2 | [F,C]3 [F,C] [F,C]2 [F,A,]2 | G,2 [G,C]2 [G,,=B,]2 [G,,B,]2 | %12
 (C,2 D,2 E,2) [E,C]2 | [F,C]3 [F,A,] [F,A,]2 [F,A,]2 | [C,G,]3 [C,G,] [C,G,]2 [C,G,]2 | %15
 [C,G,]2 [C,B,]2 [C,G,]2 [C,E,]2 | [F,,F,]6 |] %17
V:4
 x2 | x8 | x8 | x8 | x8 | x8 | x8 | x8 | x8 | x8 | x8 | G,2 x6 | G,6 x2 | x8 | x8 | x8 | x6 |] %17

